dist/images/icon-architecture.svg

<?xml version="1.0" encoding="utf-8"?>
<!-- Generator: Adobe Illustrator 19.0.0, SVG Export Plug-In . SVG Version: 6.00 Build 0)  -->
<svg version="1.1" id="Layer_1" xmlns="http://www.w3.org/2000/svg" xmlns:xlink="http://www.w3.org/1999/xlink" x="0px" y="0px"
	 viewBox="0 0 118.098 136.612" enable-background="new 0 0 118.098 136.612" xml:space="preserve">
<linearGradient id="XMLID_5_" gradientUnits="userSpaceOnUse" x1="0" y1="68.8062" x2="118" y2="68.8062">
	<stop  offset="0" style="stop-color:#9648BF"/>
	<stop  offset="1" style="stop-color:#7E5CE8"/>
</linearGradient>
<polygon id="XMLID_1_" opacity="0.1" fill="url(#XMLID_5_)" points="88.67,17.576 58.95,0.5 0,34.654 0,102.959 29.156,119.735
	59.221,137.112 118,102.959 118,34.654 "/>
<linearGradient id="XMLID_16_" gradientUnits="userSpaceOnUse" x1="0.2891" y1="120.0357" x2="117.8008" y2="120.0357">
	<stop  offset="0" style="stop-color:#9648BF"/>
	<stop  offset="1" style="stop-color:#7E5CE8"/>
</linearGradient>
<polygon id="XMLID_68_" fill="url(#XMLID_16_)" fill-opacity="0.1" points="0.289,102.959 59.045,130.656 117.801,102.959
	59.342,137.112 "/>
<path id="XMLID_67_" opacity="0.6" fill="#FFFFFF" d="M59.727,33.601c-19.442,0-35.206,15.763-35.206,35.207
	c0,1.024,0.054,2.035,0.14,3.037c1.541,18.021,16.647,32.167,35.066,32.167c18.419,0,33.525-14.146,35.067-32.167
	c0.085-1.002,0.139-2.013,0.139-3.037C94.933,49.363,79.17,33.601,59.727,33.601z"/>
<linearGradient id="XMLID_18_" gradientUnits="userSpaceOnUse" x1="42.1182" y1="71.1914" x2="77.335" y2="71.1914">
	<stop  offset="0" style="stop-color:#9648BF"/>
	<stop  offset="1" style="stop-color:#7E5CE8"/>
</linearGradient>
<path id="XMLID_21_" fill="url(#XMLID_18_)" fill-opacity="0.5" d="M77.335,67.496c0-9.726-7.885-17.608-17.608-17.608
	c-9.724,0-17.608,7.883-17.608,17.608c0,6.867,3.937,12.813,9.673,15.716h-0.005c0,0,0.014,0.003,0.02,0.006
	c0.146,0.075,0.292,0.146,0.44,0.217c0.955,0.522,3.08,2.033,3.08,5.132v3.415c0,0.283,0.232,0.514,0.516,0.514h7.77
	c0.283,0,0.516-0.23,0.516-0.514v-3.415c0-3.103,2.136-4.613,3.088-5.135c0.146-0.068,0.289-0.141,0.433-0.214
	c0.006-0.003,0.02-0.006,0.02-0.006h-0.005C73.398,80.309,77.335,74.363,77.335,67.496z"/>
<linearGradient id="XMLID_65_" gradientUnits="userSpaceOnUse" x1="54.5401" y1="87.6363" x2="64.9131" y2="87.6363">
	<stop  offset="0" style="stop-color:#9648BF"/>
	<stop  offset="1" style="stop-color:#7E5CE8"/>
</linearGradient>
<path id="XMLID_20_" opacity="0.8" fill="url(#XMLID_65_)" enable-background="new    " d="M64.913,87.938
	c0,0.335-0.272,0.608-0.607,0.608h-9.158c-0.335,0-0.607-0.273-0.607-0.608v-0.605c0-0.333,0.272-0.606,0.607-0.606h9.158
	c0.335,0,0.607,0.273,0.607,0.606V87.938z"/>
<linearGradient id="XMLID_66_" gradientUnits="userSpaceOnUse" x1="54.5401" y1="90.5205" x2="64.9131" y2="90.5205">
	<stop  offset="0" style="stop-color:#9648BF"/>
	<stop  offset="1" style="stop-color:#7E5CE8"/>
</linearGradient>
<path id="XMLID_17_" opacity="0.8" fill="url(#XMLID_66_)" enable-background="new    " d="M64.913,90.823
	c0,0.333-0.272,0.606-0.607,0.606h-9.158c-0.335,0-0.607-0.273-0.607-0.606v-0.606c0-0.333,0.272-0.605,0.607-0.605h9.158
	c0.335,0,0.607,0.272,0.607,0.605V90.823z"/>
<path id="XMLID_6_" opacity="0.6" fill="#FFFFFF" d="M65.229,62.367c-1.607,0-3.089,0.731-4.068,2.007l0.115,0.087l-0.118-0.083
	l-1.431,1.907l-1.436-1.914c-0.979-1.272-2.461-2.004-4.066-2.004c-2.827,0-5.129,2.301-5.129,5.129
	c0,2.828,2.302,5.126,5.129,5.126c0.426,0,0.842-0.055,1.242-0.154l1.531,10.015c0.055,0.358,0.364,0.615,0.717,0.615
	c0.036,0,0.073-0.002,0.109-0.009c0.396-0.059,0.67-0.431,0.607-0.826l-1.584-10.367c0.549-0.328,1.042-0.756,1.448-1.284
	l1.431-1.906l1.425,1.899H61.15c0.381,0.499,0.841,0.911,1.353,1.233L61.02,82.27c-0.056,0.397,0.219,0.765,0.616,0.82
	c0.035,0.006,0.069,0.008,0.104,0.008c0.354,0,0.666-0.262,0.717-0.624l1.429-10.035c0.433,0.116,0.882,0.184,1.344,0.184
	c2.827,0,5.129-2.298,5.129-5.126C70.357,64.668,68.056,62.367,65.229,62.367z M57.139,69.734c-0.701,0.912-1.764,1.437-2.914,1.437
	c-2.027,0-3.677-1.648-3.677-3.675c0-2.027,1.649-3.677,3.677-3.677c1.151,0,2.213,0.524,2.91,1.43l1.685,2.247L57.139,69.734z
	 M65.229,71.171c-1.148,0-2.207-0.52-2.911-1.43h0.001l-1.685-2.245l1.679-2.238c0.702-0.915,1.765-1.439,2.916-1.439
	c2.027,0,3.677,1.649,3.677,3.677C68.905,69.523,67.256,71.171,65.229,71.171z"/>
</svg>

<svg xmlns="http://www.w3.org/2000/svg" width="118" height="138" viewBox="0 0 118 138">
  <defs>
    <linearGradient id="a" x1="0%" y1="50%" y2="50%">
      <stop stop-color="#9648BF" offset="0%"/>
      <stop stop-color="#7E5CE8" offset="100%"/>
    </linearGradient>
    <linearGradient id="b" x1="0%" y1="50.001%" y2="50.001%">
      <stop stop-color="#9648BF" offset="0%"/>
      <stop stop-color="#7E5CE8" offset="100%"/>
    </linearGradient>
    <linearGradient id="c" x1="-.002%" y1="49.999%" y2="49.999%">
      <stop stop-color="#9648BF" offset="0%"/>
      <stop stop-color="#7E5CE8" offset="100%"/>
    </linearGradient>
    <linearGradient id="d" x1="-.009%" x2="100.001%" y1="49.989%" y2="49.989%">
      <stop stop-color="#9648BF" offset="0%"/>
      <stop stop-color="#7E5CE8" offset="100%"/>
    </linearGradient>
    <linearGradient id="e" x1="-.009%" x2="100.001%" y1="50%" y2="50%">
      <stop stop-color="#9648BF" offset="0%"/>
      <stop stop-color="#7E5CE8" offset="100%"/>
    </linearGradient>
  </defs>
  <g fill="none">
    <polygon fill="url(#a)" points="88.67 17.576 58.95 .5 0 34.654 0 102.959 29.156 119.735 59.221 137.112 118 102.959 118 34.654" opacity=".1"/>
    <polygon fill="url(#b)" fill-opacity=".1" points=".289 102.959 59.045 130.656 117.801 102.959 59.342 137.112"/>
    <path fill="#FFFFFF" d="M59.727,33.601 C40.285,33.601 24.521,49.364 24.521,68.808 C24.521,69.832 24.575,70.843 24.661,71.845 C26.202,89.866 41.308,104.012 59.727,104.012 C78.146,104.012 93.252,89.866 94.794,71.845 C94.879,70.843 94.933,69.832 94.933,68.808 C94.933,49.363 79.17,33.601 59.727,33.601 Z" opacity=".6"/>
    <path fill="url(#c)" fill-opacity=".5" d="M77.335,67.496 C77.335,57.77 69.45,49.888 59.727,49.888 C50.003,49.888 42.119,57.771 42.119,67.496 C42.119,74.363 46.056,80.309 51.792,83.212 L51.787,83.212 C51.787,83.212 51.801,83.215 51.807,83.218 C51.953,83.293 52.099,83.364 52.247,83.435 C53.202,83.957 55.327,85.468 55.327,88.567 L55.327,91.982 C55.327,92.265 55.559,92.496 55.843,92.496 L63.613,92.496 C63.896,92.496 64.129,92.266 64.129,91.982 L64.129,88.567 C64.129,85.464 66.265,83.954 67.217,83.432 C67.363,83.364 67.506,83.291 67.65,83.218 C67.656,83.215 67.67,83.212 67.67,83.212 L67.665,83.212 C73.398,80.309 77.335,74.363 77.335,67.496 Z"/>
    <path fill="url(#d)" d="M64.913,87.938 C64.913,88.273 64.641,88.546 64.306,88.546 L55.148,88.546 C54.813,88.546 54.541,88.273 54.541,87.938 L54.541,87.333 C54.541,87 54.813,86.727 55.148,86.727 L64.306,86.727 C64.641,86.727 64.913,87 64.913,87.333 L64.913,87.938 Z" opacity=".8"/>
    <path fill="url(#e)" d="M64.913,90.823 C64.913,91.156 64.641,91.429 64.306,91.429 L55.148,91.429 C54.813,91.429 54.541,91.156 54.541,90.823 L54.541,90.217 C54.541,89.884 54.813,89.612 55.148,89.612 L64.306,89.612 C64.641,89.612 64.913,89.884 64.913,90.217 L64.913,90.823 Z" opacity=".8"/>
    <path fill="#FFFFFF" d="M65.229,62.367 C63.622,62.367 62.14,63.098 61.161,64.374 L61.276,64.461 L61.158,64.378 L59.727,66.285 L58.291,64.371 C57.312,63.099 55.83,62.367 54.225,62.367 C51.398,62.367 49.096,64.668 49.096,67.496 C49.096,70.324 51.398,72.622 54.225,72.622 C54.651,72.622 55.067,72.567 55.467,72.468 L56.998,82.483 C57.053,82.841 57.362,83.098 57.715,83.098 C57.751,83.098 57.788,83.096 57.824,83.089 C58.22,83.03 58.494,82.658 58.431,82.263 L56.847,71.896 C57.396,71.568 57.889,71.14 58.295,70.612 L59.726,68.706 L61.151,70.605 L61.15,70.605 C61.531,71.104 61.991,71.516 62.503,71.838 L61.02,82.27 C60.964,82.667 61.239,83.035 61.636,83.09 C61.671,83.096 61.705,83.098 61.74,83.098 C62.094,83.098 62.406,82.836 62.457,82.474 L63.886,72.439 C64.319,72.555 64.768,72.623 65.23,72.623 C68.057,72.623 70.359,70.325 70.359,67.497 C70.357,64.668 68.056,62.367 65.229,62.367 Z M57.139,69.734 C56.438,70.646 55.375,71.171 54.225,71.171 C52.198,71.171 50.548,69.523 50.548,67.496 C50.548,65.469 52.197,63.819 54.225,63.819 C55.376,63.819 56.438,64.343 57.135,65.249 L58.82,67.496 L57.139,69.734 Z M65.229,71.171 C64.081,71.171 63.022,70.651 62.318,69.741 L62.319,69.741 L60.634,67.496 L62.313,65.258 C63.015,64.343 64.078,63.819 65.229,63.819 C67.256,63.819 68.906,65.468 68.906,67.496 C68.905,69.523 67.256,71.171 65.229,71.171 Z" opacity=".6"/>
  </g>
</svg>
